!!!COM: Haydn, Franz Joseph
!!!CDT: 1732/03/31-1809/05/31
!!!CNT: Austrian
!!!OTL: Sonata No. 33 in C minor
!!!SCT: Hob. XVI:20
!!!OMV: 3
!!!OMD: Finale: Allegro.
!!!ODT: ~1771
**kern	**kern	**dynam
*staff2	*staff1	*staff1/2
*>[A,A,B,B]	*>[A,A,B,B]	*>[A,A,B,B]
*>norep[A,B]	*>norep[A,B]	*>norep[A,B]
*>A	*>A	*>A
*clefF4	*clefG2	*clefG2
*k[b-e-a-]	*k[b-e-a-]	*k[b-e-a-]
*c:	*c:	*c:
*M3/4	*M3/4	*M3/4
*MM132	*MM132	*MM132
4r	4cc`	f
*clefG2	*	*
=1	=1	=1
.	(ff16qqP	.
4c` 4e-`	(8ee-pL)	.
.	16ddL	.
.	16ccJJ	.
4d` 4f`	4bn`)	.
4r	4dd`	.
=2	=2	=2
.	(gg16qqP	.
4d` 4f`	()8ffpL	.
.	16ee-L	.
.	16ddJJ	.
4e- 4g	4cc`)	.
4r	(8.ggL	.
.	16cccJk)	.
=3	=3	=3
(4e- 4g	(8.cccL	.
.	16bbnJk)	.
4d 4f	(8.bbL	.
.	16aa-XJk)	.
4c) 4e-	(8.aa-L	.
.	16ggJk)	.
=4	=4	=4
(4Bn 4d	2gg	.
4G 4B)	.	.
.	(gg16qqP	.
4B` 4g`	(8ffpL)	.
.	16ee-L	.
.	16ddJJ	.
=5	=5	=5
.	(ff16qqP	.
4c` 4g`	8ee-pL)	.
.	16ddL	.
.	16ccJJ	.
4r	8.bnL	.
.	16ccJk	.
4A-` 4f#`	8.ccTL	.
.	32bLL	.
.	32ccJJJ)	.
!!LO:LB:g=z
=6	=6	=6
*	*^	*
.	.	(cc\4qqP	.
4G` 4g`	2dd	2bnp)	.
4r	.	.	.
4r	4ryy	4c`	p
*clefF4	*	*	*
*	*v	*v	*
=7	=7	=7
.	(f16qqP	.
4r	(8e-pL)	.
.	16dL	.
.	16cJJ	.
4D` 4F`	4Bn`)	.
4r	4d`	.
=8	=8	=8
.	(g16qqP	.
4r	(8fpL)	.
.	16e-L	.
.	16dJJ	.
4E-` 4G`	4c`)	.
4r	(16ccLL	.
.	16bn	.
.	16dd	.
.	16ccJJ	.
=9	=9	=9
2.r	8ee-`L)	.
.	8dd`	.
.	8cc`	.
.	8b-X`	.
.	8a-`	.
.	8g`J	.
=10	=10	=10
4r	(8gL	.
.	8f#	.
(4Bn	8dd`)	.
.	8fn`	.
4c)	(8f	.
.	8e-J)	.
=11	=11	=11
4F	8r	.
.	(8dL	.
4r	8f	.
.	8a-	.
4G	8g	.
.	8BnJ	.
!!LO:LB:g=z
=12	=12	=12
4r	4c)	.
4CC`	4r	.
(16CLL	4r	f
16BBn	.	.
16D	.	.
16CJJ	.	.
=13	=13	=13
4E-`)	8r	.
.	(8ee-L	.
4r	8dd	.
.	8cc	.
4r	8b-X	.
.	8a-J	.
=14	=14	=14
8r	[2g)	.
(8e-L	.	.
8d	.	.
8c	.	.
8B-	(8gL]	.
8A-J	8a-J	.
=15	=15	=15
8G)	8b-/)	.
8E-`L	(16gLL	.
.	16b-JJ	.
8D`	16fLL	.
.	16b-	.
8C`	16e-	.
.	16b-JJ	.
8BB-`	16dLL	.
.	16b-	.
8AA-`J	16c	.
.	16b-JJ	.
=16	=16	=16
4GG	8B-`L)	.
!	!	!LO:DY:b
.	(8ee-	p >
4r	8gg	.
.	8ee-	.
4r	8dd	.
.	8ccJ)	]]
=17	=17	=17
*^	*	*
8r	2.F	(4b-/	p
(<8cL	.	.	.
8e-J	.	2an)	.
8g>L	.	.	.
8f>	.	.	.
8e->J)	.	.	.
!!LO:LB:g=z
=18	=18	=18	=18
(4e-	2.B-	8r	.
.	.	(8a-XL	.
2d)	.	8ff	.
.	.	8dd	.
.	.	8b-	.
.	.	8a-J)	.
=19	=19	=19	=19
8rc	(<2.E-	(>4a-	.
(<8B-L	.	.	.
8e-J	.	[2g)	.
8f>L	.	.	.
8e->	.	.	.
8d>J	.	.	.
=20	=20	=20	=20
2.c>)	2AA-	(8g]L	<
.	.	8f	.
.	.	8cc	.
.	.	8a-	.
.	4AAn)	8f	.
.	.	8e-J	[[
*v	*v	*	*
=21	=21	=21
4BBB- 4BB-	16dLL	f
.	16f	.
.	16e-	.
.	16gJJ	.
8d`L	16fLL	.
.	16a-	.
8e-`J	16g	.
.	16b-JJ	.
8f`	8a-)	.
8r	8r	.
=22	=22	=22
4BBB- 4BB-	(16e-LL	.
.	16g	.
.	16f	.
.	16a-JJ	.
8e-`L	16gLL	.
.	16b-	.
8f`J	16a-	.
.	16ccJJ	.
8g`	8b-)	.
8r	8r	.
!!LO:LB:g=z
=23	=23	=23
4BBB- 4BB-	(16b-LL	.
.	16dd	.
.	16cc	.
.	16ee-JJ	.
8B-`L	16ddLL	.
.	16ff	.
8c`	16ee-	.
.	16ggJJ	.
8d`	16ffLL	.
.	16aa-	.
8e-`J	16gg	.
.	16bb-JJ	.
=24	=24	=24
4f	16aa-LL	.
.	16bb-	.
.	16ccc	.
.	16bb-JJ	.
4r	16aa-LL	.
.	16gg	.
.	16ff	.
.	16ee-JJ	.
4r	16ddLL	.
.	16cc	.
.	16b-	.
.	16a-JJ)	.
*clefG2	*	*
=25	=25	=25
8e-`L	(16gLL<	.
.	16b-	.
8f`	16a-	.
.	16ccJJ	.
8g`	16b-LL	.
.	16dd	.
8a-`	16cc	.
.	16ee-JJ	.
8b-`	16ddLL	.
.	16ff	.
8cc`J	16ee-	.
.	16ggJJ	.
=26	=26	=26
4dd	16ffLL	.
.	16gg	.
.	16aa-	.
.	16ggJJ	.
4r	16ffLL	.
.	16ee-	.
.	16dd	.
.	16ccJJ	.
4r	16b-LL	.
.	16a-	.
.	16g	.
.	16fJJ)	.
*clefF4	*	*
!!LO:LB:g=z
=27	=27	=27
4c`	(>16e-LL	.
.	16d	.
.	16e-	.
.	16a-JJ	.
4B-`	16e-LL	.
.	16d	.
.	16e-	.
.	16gJJ	.
4A-`	16e-LL	.
.	16d	.
.	16e-	.
.	16ccJJ	.
=28	=28	=28
4G`	16e-LL	.
.	16d	.
.	16e-	.
.	16b-JJ	.
4F`	16e-LL	.
.	16d	.
.	16e-	.
.	16a-JJ	.
4E-`	16e-LL	.
.	16d	.
.	16e-	.
.	16gJJ)	.
*clefG2	*	*
=29	=29	=29
(4cc	(>16e-LL	p
.	16d	.
.	16e-	.
.	16a-JJ	.
4b-	16e-LL	.
.	16d	.
.	16e-	.
.	16gJJ	.
4ee-	16e-LL	.
.	16d	.
.	16e-	.
.	16ccJJ	.
=30	=30	=30
4dd	16e-LL	.
.	16d	.
.	16e-	.
.	16b-JJ	.
4cc	16e-LL	.
.	16d	.
.	16e-	.
.	16a-JJ	.
4b-)	16e-LL	.
.	16d	.
.	16e-	.
.	16gJJ)	.
*clefF4	*	*
!!LO:LB:g=z
=31	=31	=31
4AAn`	(>16e-LL	f
.	16d	.
.	16e-	.
.	16g-JJ	.
4An`	16e-LL	.
.	16d	.
.	16e-	.
.	16g-JJ	.
4r	16e-LL	.
.	16d	.
.	16e-	.
.	16g-JJ	.
=32	=32	=32
4AA-X`	16dLL	.
.	16f	.
.	16a-	.
.	16ccJJ	.
4A-X`	16b-LL	.
.	16a-	.
.	16gn	.
.	16fJJ	.
4r	16e-LL	.
.	16d	.
.	16c	.
.	16B-JJ)	.
=33	=33	=33
4G	8r	.
.	8e-`L<	.
4r	8g`	.
.	8b-`	.
8r	8ee-`J	.
(8E-	([8gg [8bb-	.
=34	=34	=34
4A-	8gg] 8bb-]	.
.	4ff 4aa-	.
4B-	.	.
.	4ee- 4gg	.
4BB-)	.	.
.	8dd 8ff)	.
!!LO:LB:g=z
=35	=35	=35
8C`L	(16ee-LL<	.
.	16a-	.
8c`	16g	.
.	16a-JJ	.
8BB-`	16ddLL	.
.	16g	.
8B-`	16f#	.
.	16gJJ	.
8AA-`	16ccLL	.
.	16fn	.
8A-`J	16en	.
.	16fJJ	.
=36	=36	=36
8GG`L	16b-LL	.
.	16e-X	.
8G`	16d	.
.	16e-JJ	.
8FF`	16a-LL	.
.	16d	.
8F`	16c#	.
.	16dJJ	.
8EE-`	16gLL	.
.	16e-	.
8E-`J	16d	.
.	16e-JJ)	.
=37	=37	=37
4AA-	8r	.
.	8Bn`L	mf
4r	8c`	.
.	8d`	.
4r	8e-`	.
.	8en`J	.
=38	=38	=38
2.r	8f`L	.
.	(8g	>
.	8b-X	.
.	8a-	.
.	8g	.
.	8fJ)	]]
=39	=39	=39
8r	[2.e- [2.g	p
(8AAnL	.	.
8BB-	.	.
8AA	.	.
8BB-	.	.
8AAJ	.	.
!!LO:LB:g=z
=40	=40	=40
2.BB-)	(8e-] 8gL]	.
.	8g 8b-)	.
.	(8g 8b-	.
.	8f 8a-	.
.	8e- 8g	.
.	8d 8fJ)	.
=41	=41	=41
*^	*^	*
8r	[2.E-	[2.e-	8r	.
(8F#L	.	.	(8AnL	.
8G	.	.	8B-	.
8F#	.	.	8A	.
8G	.	.	8B-	.
8F#J	.	.	8AJ	.
=42	=42	=42	=42	=42
8GL)	2.E-_	2.e-_	8B-L)	.
(8An	.	.	(8c	.
8B-	.	.	8d-	.
8A	.	.	8c	.
8B-	.	.	8d-	.
8AJ	.	.	8cJ	.
=43	=43	=43	=43	=43
8B-L)	2.E-_	2.e-_	8d-L)	.
(8G	.	.	(8Bn	.
8A-X	.	.	8c	.
8G	.	.	8B	.
8A-	.	.	8c	.
8GJ	.	.	8BJ	.
=44	=44	=44	=44	=44
8A-)	2.E-]	8e-L]	8cL)	.
8rc	.	(8cc	(8a-	pp
4rc	.	8b-	8g	.
.	.	8a-	8f	.
4rc	.	8g	8e-	.
.	.	8fJ)	8dnJ)	.
*v	*v	*	*	*
*	*v	*v	*
=45	=45	=45
([2.E- 2.A-	((2.d 2.f	>
=46	=46	=46
4E-] 4G)	4e- 4g))	.
4r	4r	]
!!LO:LB:g=z
=:|!|:	=:|!|:	=:|!|:
*>B	*>B	*>B
4r	4ee-`	f
*clefG2	*	*
=47	=47	=47
.	(aa-16qqP	.
4e-` 4g`	(8ggpL)	.
.	16ffL	.
.	16ee-JJ	.
4f` 4a-`	4dd`)	.
4r	4ff`	.
=48	=48	=48
.	(bb-16qqP	.
4f` 4a-`	(8aa-pL)	.
.	16ggL	.
.	16ffJJ	.
4g` 4b-`	4ee-`)	.
4r	(8.bb-L	.
.	16eee-Jk)	.
=49	=49	=49
(4g 4b-	(8.eee-L	.
.	16dddJk)	.
4f 4a-	(8.dddL	.
.	16cccJk)	.
4e-) 4g	(8.cccL	.
.	16bb-Jk)	.
=50	=50	=50
(4d 4f	2bb-	.
4B- 4d)	.	.
.	(bb-16qqP	.
4d` 4b-`	(8aa-pL)	.
.	16ggL	.
.	16ffJJ	.
=51	=51	=51
.	(aa-16qqP	.
4e-` 4b-`	8ggpL)	.
.	16ffL	.
.	16ee-JJ	.
4r	8.ddL	.
.	16ee-Jk)	.
4c` 4an`	(8.ee-TL	.
.	32ddLL	.
.	32ee-JJJ)	.
!!LO:LB:g=z
=52	=52	=52
*	*^	*
.	.	(ee-4qqP\	.
4B-` 4b-`	2ff	2ddp)	.
4r	.	.	.
4r	4r	4ryy	.
*	*v	*v	*
=53	=53	=53
2.r	4r	.
.	4r	.
.	4f`	p
=54	=54	=54
.	(b-16qqP	.
4r	(8a-pL)	.
.	16gL	.
.	16fJJ	.
*clefF4	*	*
4G` 4B-`	4en`)	.
4r	(16eLL	.
.	16f	.
.	16g	.
.	16a-JJ	.
=55	=55	=55
.	(cc16qqP	.
4r	8b-pL)	.
.	16a-L	.
.	16gJJ	.
4A-` 4c`	4f`)	.
4r	(16ffLL	.
.	16een	.
.	16gg	.
.	16ffJJ	.
=56	=56	=56
2.r	8aa-`L)	.
.	8gg`	.
.	8ff`	.
.	8ee-X`	.
.	8dd`	.
.	8cc`J	.
*clefG2	*	*
=57	=57	=57
8r	(4cc	.
(8a-L	.	.
8g)	8bnL)	.
8f`	8aa-`	mf
8e-`	8gg`	.
8d`J	8ff`J	.
!!LO:LB:g=z
=58	=58	=58
(8cL	(4ff	.
8d	.	.
8e-J)	8ee-L)	.
8r	8dd`	.
4r	8cc`	.
.	8b-X`J	.
=59	=59	=59
8r	(4b-	.
(8gL	.	.
8f)	8anL)	.
8e-`	8gg`	.
8d`	8ff`	.
8c`J	8ee-`J	.
=60	=60	=60
(8B-L	(4ee-	.
8c	.	.
8dJ)	8ddL)	.
8r	8cc`	.
4r	8b-`	.
.	8an`J	.
=61	=61	=61
8r	(4an	.
(8fL	.	.
8e-)	8gL)	.
8d`	8ff`	.
8c`	8ee-`	.
8B-`J	8dd`J	.
=62	=62	=62
(8AnL	(4dd	.
8B-	.	.
8cJ)	8ccL<)	.
8r	8b-`	<
4r	8an`	.
.	8g`J	.
*clefF4	*	*
=63	=63	=63
8r	(4g	.
(8e-L	.	.
8d)	8f#L>)	.
8c`	8ee-`	.
8B-`	8dd`	.
8An`J	8cc`J	.
!!!LO:LB:g=z
=64	=64	=64
8G`L	(8ccL	.
8Fn`	8b-J	.
8E-`	4gg)	.
8D`J	.	.
4C#	8rc<	.
.	8G#<`	.
=65	=65	=65
4DD 4D	(16F#<LL	f
.	16An<	.
.	16G<	.
.	16B-<JJ	.
8F#L`	16A<LL	.
.	16c<	.
8GJ`	16B-<	.
.	16d<JJ	.
8An`	8c<)	.
8r	8rc<	.
=66	=66	=66
4DD 4D	(16G<LL	.
.	16B-<	.
.	16An<	.
.	16c<JJ	.
8G`<L	16B-LL	.
.	16d	.
8An`<J	16c	.
.	16e-JJ	.
8B-`<	8d)	.
8r	8r	.
=67	=67	=67
8DD`L	(16F#<LL	.
.	16An<	.
8EEn`J	16G<	.
.	16B-<JJ	.
4FF#	16A<LL	.
.	16c<	.
.	16B-<	.
.	16d<JJ	.
4r	16cLL	.
.	16e-	.
.	16d	.
.	16cJJ	.
!!LO:LB:g=z
=68	=68	=68
8GG`L	16B-LL	.
.	16d	.
8AAn`J	16c	.
.	16e-JJ	.
4BB-	16dLL	.
.	16g	.
.	16f#	.
.	16anJJ	.
4r	16gLL	.
.	16b-	.
.	16a	.
.	16gJJ	.
=69	=69	=69
8D`L	(16f#LL)	.
.	16an	.
8En`J	16g	.
.	16b-JJ	.
4F#	16aLL	.
.	16cc	.
.	16b-	.
.	16ddJJ	.
4r	16ccLL	.
.	16ee-	.
.	16dd	.
.	16ccJJ	.
=70	=70	=70
8G`L	16b-LL	.
.	16dd	.
8An`J	16cc	.
.	16ee-JJ	.
4B-	16ddLL	.
.	16gg	.
.	16ff#	.
.	16aanJJ	.
4r	16ggLL	.
.	16bb-	.
.	16aa	.
.	16ggJJ	.
*clefG2	*	*
=71	=71	=71
8dL	(16ff#LL)	.
.	16aan	.
8en`J	16gg	.
.	16bb-JJ	.
4f#	16aaLL	.
.	16ccc	.
.	16bb-	.
.	16dddJJ	.
4r	16cccLL	.
.	16eee-	.
.	16ddd	.
.	16cccJJ	.
!!LO:LB:g=z
=72	=72	=72
(4g	16bb-LL	.
.	16ccc	.
.	16ddd	.
.	16cccJJ	.
4an	16bb-LL	.
.	16aan	.
.	16gg	.
.	16ff#JJ	.
4b-/)	16ggLL	.
.	16ffn	.
.	16ee-	.
.	16ddJJ	.
=73	=73	=73
*^	*	*
.	.	(ff16qqP	.
4g	4c	8ee-pL)	.
.	.	16ddL	.
.	.	16ccJJ	.
(4g	2d	4b-	.
4f#)	.	4ant	.
.	.	16qgLL	.
.	.	16qaJJ	.
*v	*v	*	*
*clefF4	*	*
=74	=74	=74
8r	4g)	.
(8F#	.	.
4G)	8r	.
.	8ee- (8ggL	p
4r	8dd 8ffn	.
.	8cc 8ee-J	.
*clefG2	*	*
=75	=75	=75
8r	4bn 4dd)	.
(8f#L	.	.
8gJ)	8r	.
8r	8cc (8ee-L	.
4r	8b 8dd	.
.	8an 8ccJ	.
*clefF4	*	*
=76	=76	=76
8r	4g 4bn)	.
(8F#L	.	.
8GJ)	8r	.
8r	(8e- 8gL	.
4r	8d 8f	.
.	8c 8e-J	.
!!LO:LB:g=z
=77	=77	=77
8r	4Bn) 4d	.
(8FF#L	.	.
*	*clefF4	*clefF4
8GGJ)	8r	.
8r	8E- (8GL	.
4r	8D 8Fn	.
.	8C 8E-J	.
=78	=78	=78
8r	4BBn 4D)	.
(8FFF#L	.	.
*	*clefG2	*clefG2
8GGGJ)	8r	.
!	!	!LO:DY:a=2:rj
8r	(8bnL	mf <
4r	8cc	.
.	8ddJ	[[
*clefG2	*	*
=79	=79	=79
.	(ff16qqP	.
(4c 4e-	8ee-pL)	>
.	16ddL	.
.	16ccJJ	.
4d 4f)	8bnL)	] <
.	(8cc	.
4r	8cc#	.
.	8ddJ	[
=80	=80	=80
.	(gg16qqP	.
(4d 4f	8ffpL)	>
.	16ee-L	.
.	16ddJJ	.
4e-) 4g	8ccnL)	] <
.	(8ee-	.
4r	8gg	.
.	8cccJ)	[
=81	=81	=81
(4e- 4g	(8cccL	f >
.	16bbnJk)	.
.	16r	.
4d 4f	(8bbL	.
.	16aa-XJk)	]
.	16r	.
4c) 4e-	(8aa-L	.
.	16ggJk)	.
.	16r	.
!!LO:LB:g=z
=82	=82	=82
(4Bn 4d	4.gg	.
4G 4B)	.	.
.	(16ddLL	.
.	16ee-JJ	.
.	(gg16qqP	.
4B` 4g`	8ffpL)	.
.	16ee-L	.
.	16ddJJ	.
=83	=83	=83
.	(ff16qqP	.
4c` 4g`	8ee-pL)	.
.	16ddL	.
.	16ccJJ	.
4r	8.bnL	.
.	16ccJk	.
4A-` 4f#`	8.ccTL	.
.	32bLL	.
.	32ccJJJ)	.
=84	=84	=84
*	*^	*
.	.	(cc4qqP\	.
4G 4g	2dd	2bnp)	.
*clefF4	*	*	*
8r	.	.	.
(8FnL	.	.	.
8E-	4r	4ryy	.
8DJ	.	.	.
*	*v	*v	*
=85	=85	=85
4C)	8r	.
.	(8ccL	p
4r	8ee-	.
.	8cc	.
4r	8a-	.
.	8gJ)	.
=86	=86	=86
*^	*	*
8r	2.D	(4g	.
(<8AnL	.	.	.
8cJ	.	2f#)	.
8e->L	.	.	.
8d>	.	.	.
8c>J)	.	.	.
!!LO:LB:g=z
=87	=87	=87	=87
(4c	2.G	8r	.
.	.	(8fnL	.
2Bn)	.	8dd	.
.	.	8bn	.
.	.	8g	.
.	.	8fJ)	.
=88	=88	=88	=88
8rc	(<2.C	4f	.
(<8GL	.	.	.
8cJ	.	[2e-	.
8B-X>L	.	.	.
8A-X>	.	.	.
8G>J	.	.	.
=89	=89	=89	=89
2A->)	2FF	8e-L]	.
.	.	(<8d	<
.	.	8a-	.
.	.	8f	.
4rA	4FF#)	8d	.
.	.	8cJ)	[[
*v	*v	*	*
=90	=90	=90
4GGG 4GG	(16BnLL	f
.	16d	.
.	16c	.
.	16e-JJ	.
8Bn`L	16dLL	.
.	16f	.
8c`J	16e-	.
.	16gJJ	.
8d`	8f)	.
8r	8r	.
=91	=91	=91
4GG	(16cLL	.
.	16e-	.
.	16d	.
.	16fJJ	.
8c`L	16e-LL	.
.	16g	.
8d`J	16f	.
.	16a-JJ	.
8e-`	8g)	.
8r	8r	.
!!LO:LB:g=z
=92	=92	=92
8G`L	(16BnLL	.
.	16d	.
8An`J	16c	.
.	16e-JJ	.
4Bn	16dLL	.
.	16f	.
.	16e-	.
.	16gJJ	.
4r	16fLL	.
.	16a-	.
.	16g	.
.	16fJJ	.
=93	=93	=93
8c`L	16e-LL	.
.	16g	.
8d`J	16f	.
.	16a-JJ	.
4e-	16gLL	.
.	16cc	.
.	16bn	.
.	16ddJJ	.
4r	16ccLL	.
.	16ee-	.
.	16dd	.
.	16ccJJ	.
*clefG2	*	*
=94	=94	=94
8g`L	(16bnLL)	.
.	16dd	.
8an`J	16cc	.
.	16ee-JJ	.
4bn/	16ddLL	.
.	16ff	.
.	16ee-	.
.	16ggJJ	.
4r	16ffLL	.
.	16aa-	.
.	16gg	.
.	16ffJJ	.
=95	=95	=95
8cc`L	16ee-LL	.
.	16gg	.
8dd`J	16ff	.
.	16aa-JJ	.
4ee-	16ggLL	.
.	16ccc	.
.	16bbn	.
.	16dddJJ	.
4r	16cccLL	.
.	16eee-	.
.	16ddd	.
.	16cccJJ	.
!!LO:LB:g=z
=96	=96	=96
4r	16bbnLL	.
.	16ccc	.
.	16ddd	.
.	16bbJJ	.
16r	8gg)	p
(16ffLL	.	.
16ee-	8r	.
16ddJJ	.	.
16ccLL<	4r	.
16bn	.	.
16an	.	.
16gJJ	.	.
=97	=97	=97
4cc	(16eee-LL	.
.	16gg	.
.	16ff#	.
.	16ggJJ	.
4b-X	16dddLL	.
.	16gg	.
.	16ff#	.
.	16ggJJ	.
4a-X	16cccLL	.
.	16gg	.
.	16ff#	.
.	16ggJJ	.
=98	=98	=98
4g)	16bbnLL	.
.	16ccc	.
.	16ddd	.
.	16bbJJ	.
16r	8gg)	.
(16ffnLL	.	.
16ee-	8r	.
16ddJJ	.	.
16ccLL<	4r	.
16bn	.	.
16an	.	.
16gJJ	.	.
=99	=99	=99
4cc	(16eee-LL	.
.	16gg	.
.	16ff#	.
.	16ggJJ	.
4b-X	16dddLL	.
.	16gg	.
.	16ff#	.
.	16ggJJ	.
4a-X	16cccLL	.
.	16gg	.
.	16ff#	.
.	16ggJJ	.
!!LO:LB:g=z
=100	=100	=100
4g)	16bbnLL	.
.	16ccc	.
.	16ddd	.
.	16bbJJ	.
16r	8gg)	.
(16ffnLL	.	.
16ee-	8r	.
16ddJJ	.	.
16ccLL<	4r	.
16bn	.	.
16an	.	.
16gJJ	.	.
=101	=101	=101
4cc)	(16ee-LL	.
.	16ff	.
.	16gg	.
.	16ee-JJ	.
16r	8cc)	.
!	!	!LO:DY:rj
(16b-XLL	.	mf
16a-X	8r	.
16gJJ	.	.
16fLL	4r	.
16e-	.	.
16d	.	.
16cJJ	.	.
=102	=102	=102
4f	(16aa-LL	.
.	16cc	.
.	16bn	.
.	16ccJJ	.
4e-	16ggLL	.
.	16cc	.
.	16b	.
.	16ccJJ	.
4d	16ffLL	.
.	16cc	.
.	16b	.
.	16ccJJ	.
=103	=103	=103
4c)	16ee-LL	.
.	16ff	.
.	16gg	.
.	16ee-JJ	.
16r	8cc)	.
(16b-XLL	.	.
16a-X	8r	.
16gJJ	.	.
16fLL	4r	.
16e-	.	.
16d	.	.
16cJJ)	.	.
!!LO:LB:g=z
=104	=104	=104
(4f	16aa-LL	mf
.	16cc	.
.	16bn	.
.	16ccJJ	.
4e-)	16ggLL	.
.	16cc	.
.	16b	.
.	16ccJJ	.
4r	16ggLL	.
.	16cc	.
.	16b	.
.	16ccJJ	.
=105	=105	=105
(4a-	16ffLL	.
.	16cc	.
.	16bn	.
.	16ccJJ	.
4g)	16ee-LL	.
.	16cc	.
.	16b	.
.	16ccJJ	.
4r	16ee-LL	.
.	16cc	.
.	16b	.
.	16ccJJ	.
=106	=106	=106
(4f	16aa-LL	.
.	16cc	.
.	16bn	.
.	16ccJJ	.
4e-)	16ggLL	.
.	16cc	.
.	16b	.
.	16ccJJ	.
4r	16ggLL	.
.	16cc	.
.	16b	.
.	16ccJJ	.
*clefF4	*	*
!!LO:LB:g=z
=107	=107	=107
4D` 4d`	16ff#LL	f
.	16cc	.
.	16bn	.
.	16ccJJ	.
*clefG2	*	*
(4eee-	16ff#LL	.
.	16cc	.
.	16b	.
.	16ccJJ	.
4aan)	16ff#LL	.
.	16cc	.
.	16b	.
.	16ccJJ	.
*clefF4	*	*
=108	=108	=108
4G` 4g`	16ffnLL	.
.	16bn	.
.	16a#	.
.	16bJJ	.
*clefG2	*	*
(4ddd	16ffLL	.
.	16b	.
.	16a#	.
.	16bJJ	.
4gg)	16ffLL	.
.	16b	.
.	16a#	.
.	16bJJ	.
*clefF4	*	*
=109	=109	=109
4C` 4c`	16eenLL	.
.	16b-X	.
.	16an	.
.	16b-JJ	.
*clefG2	*	*
(4ddd-	16eeLL	.
.	16b-	.
.	16a	.
.	16b-JJ	.
4gg)	16eeLL	.
.	16b-	.
.	16a	.
.	16b-JJ	.
*clefF4	*	*
!!LO:LB:g=z
=110	=110	=110
4F` 4f`	16ee-XLL<	.
.	16an	.
.	16g#	.
.	16aJJ	.
*clefG2	*	*
(4ccc	16ee-LL<	.
.	16a	.
.	16g#	.
.	16aJJ	.
4ff)	16ee-LL<	.
.	16a	.
.	16g#	.
.	16aJJ	.
*clefF4	*	*
=111	=111	=111
4BB-` 4B-`	16ddLL	.
.	16a-X	.
.	16g	.
.	16a-JJ	.
*clefG2	*	*
(4fff	16ddLL	.
.	16a-	.
.	16g	.
.	16a-JJ	.
4bb-)	16ddLL	.
.	16a-	.
.	16g	.
.	16a-JJ	.
*clefF4	*	*
=112	=112	=112
4E-` 4e-`	16ddLL	.
.	16g	.
.	16f#	.
.	16gJJ	.
*clefG2	*	*
(4bb-	16ddLL	.
.	16g	.
.	16f#	.
.	16gJJ	.
4ee-)	16ddLL	.
.	16g	.
.	16f#	.
.	16gJJ	.
*clefF4	*	*
!!LO:LB:g=z
=113	=113	=113
4AA-X` 4A-X`	16ccLL	.
.	16g	.
.	16f#	.
.	16gJJ	.
*clefG2	*	*
(4eee-	16ccLL	.
.	16g	.
.	16f#	.
.	16gJJ	.
4aa-)	16ccLL	.
.	16g	.
.	16f#	.
.	16gJJ	.
*clefF4	*	*
=114	=114	=114
4D` 4d`	16ccLL	.
.	16fn	.
.	16en	.
.	16fJJ	.
*clefG2	*	*
(4aa-	16ccLL	.
.	16f	.
.	16e	.
.	16fJJ	.
4dd)	16ccLL	.
.	16f	.
.	16e	.
.	16fJJ	.
*clefF4	*	*
=115	=115	=115
4GG` 4G`	16bnLL	.
.	16f	.
.	16en	.
.	16fJJ	.
*clefG2	*	*
(4ddd	16bLL	.
.	16f	.
.	16e	.
.	16fJJ	.
4gg)	16bLL	.
.	16f	.
.	16e	.
.	16fJJ	.
*clefF4	*	*
!!LO:LB:g=z
=116	=116	=116
4GG` 4G`	16ccLL	.
.	16e-X	.
.	16d	.
.	16e-JJ	.
*clefG2	*	*
(4gg	16ccLL	.
.	16e-	.
.	16d	.
.	16e-JJ	.
4ee-)	16ccLL	.
.	16e-	.
.	16d	.
.	16e-JJ	.
*clefF4	*	*
=117	=117	=117
4AA-` 4A-`	16ccLL	.
.	16f#	.
.	16c	.
.	16f#JJ	.
*clefG2	*	*
(4ccc	16ccLL	.
.	16f#	.
.	16c	.
.	16f#JJ	.
4eee-)	16ccLL	.
.	16f#	.
.	16c	.
.	16f#JJ	.
=118	=118	=118
(4eee-	16ccLL	.
.	16f#	.
.	16c	.
.	16f#JJ	.
4ddd	16ccLL	.
.	16f#	.
.	16c	.
.	16f#JJ	.
4ccc	16ccLL	.
.	16f#	.
.	16c	.
.	16f#JJ	.
!!LO:LB:g=z
=119	=119	=119
4bbn)	(>16gLL	>
.	16bn	.
.	16g	.
.	16dJJ	.
*clefF4	*	*
2ryy	16Bn	.
.	16G<LL<	.
.	16D<	.
.	16BBn<JJ	.
.	4GG<)	.
=120	=120	=120
4r	4r	.
4r;	4r;	.
!	!	!LO:DY:rj
4r	4c`	p
=121	=121	=121
.	(f16qqP	.
4C` 4E-`	(8e-pL)	.
.	16dL	.
.	16cJJ	.
4D` 4F`	4Bn`)	.
4r	4d`	.
=122	=122	=122
.	(g16qqP	.
4D` 4F`	(8fpL)	.
.	16e-L	.
.	16dJJ	.
4E-` 4G`	4c`)	.
4r	(16ccLL	.
.	16dd-	.
.	16ddn	.
.	16ee-JJ	.
*clefG2	*	*
!!LO:LB:g=z
=123	=123	=123
4r	4cc	.
4d` 4f`	4bn)	.
4r	(16ddLL	.
.	16ee-	.
.	16een	.
.	16ffJJ	.
=124	=124	=124
4r	4dd	.
4e-` 4g`	4cc)	.
(4e- 4g	(8ggL	f
.	[8cccJ	.
=125	=125	=125
4d 4f	8ccc]	.
.	4bb-X	.
4c 4e-	.	.
.	4aa-	.
4B-X 4d	.	.
.	[8gg	.
*clefF4	*	*
=126	=126	=126
4A- 4c	8gg]	.
.	4ff	.
4G 4B-	.	.
.	4ee-	.
4F 4A-	.	.
.	[8dd	.
=127	=127	=127
4E- 4G	8dd]	.
.	4cc	.
4D 4F	.	.
.	4bn	.
4C/ 4E-/	.	.
.	[8a-	.
=128	=128	=128
4BBn 4D)	8a-]	.
.	4g	.
4Bn` 4d`	.	.
.	8fL	.
4r	8e-	.
.	8dJ)	.
!!LO:LB:g=z
=129	=129	=129
4A-X`	(16cLL	.
.	16Bn	.
.	16c	.
.	16fJJ	.
4G`	16cLL	.
.	16B	.
.	16c	.
.	16e-JJ	.
4F`	16cLL	.
.	16B	.
.	16c	.
.	16a-JJ	.
=130	=130	=130
4E-`	16cLL	.
.	16Bn	.
.	16c	.
.	16gJJ	.
4D`	16cLL	.
.	16B	.
.	16c	.
.	16fJJ	.
4C`	16cLL	.
.	16B	.
.	16c	.
.	16e-JJ)	.
*clefG2	*	*
=131	=131	=131
(4a-	(16cLL	p
.	16Bn	.
.	16c	.
.	16fJJ	.
4g	16cLL	.
.	16B	.
.	16c	.
.	16e-JJ	.
4cc	16cLL	.
.	16B	.
.	16c	.
.	16a-JJ	.
=132	=132	=132
4b-	16cLL	.
.	16Bn	.
.	16c	.
.	16gJJ	.
4a-	16cLL	.
.	16B	.
.	16c	.
.	16fJJ	.
4g)	16cLL	.
.	16B	.
.	16c	.
.	16e-JJ)	.
*clefF4	*	*
!!LO:LB:g=z
=133	=133	=133
4FF#`	(16cLL	f
.	16Bn	.
.	16c	.
.	16e-JJ	.
4F#`	16cLL	.
.	16B	.
.	16c	.
.	16e-JJ	.
4r	16cLL	.
.	16B	.
.	16c	.
.	16e-JJ	.
=134	=134	=134
4FFn`	16BnLL	.
.	16d	.
.	16f	.
.	16a-JJ	.
4Fn`	16gLL	.
.	16f	.
.	16e-	.
.	16dJJ	.
4r	16cLL	.
.	16B	.
.	16An	.
.	16GJJ)	.
=135	=135	=135
4E-	8r	.
.	8c`L	.
4r	8e-`	.
.	8g`	.
8r	8cc`J	.
(8C	[8ee- ([8gg	.
=136	=136	=136
4F	8ee-] 8gg]	.
.	4dd 4ff	.
4G	.	.
.	4cc 4ee-	.
4GG)	.	.
.	8bn 8dd)	.
!!LO:LB:g=z
=137	=137	=137
8AA-`L	16ccLL	.
.	16f	.
8A-`	16en	.
.	16fJJ	.
8GG`	16b-XLL	.
.	16e-	.
8G`	16d	.
.	16e-JJ	.
8FF`	16a-XLL	.
.	16d	.
8F`J	16c#	.
.	16dJJ	.
=138	=138	=138
8EE-`L	16gLL	.
.	16cn	.
8E-`	16Bn	.
.	16cJJ	.
8DD`	16fLL	.
.	16B	.
8D`	16An	.
.	16BJJ	.
8CC`	16e-LL	.
.	16c	.
8C`J	16B	.
.	16cJJ	.
=139	=139	=139
4FF	8r	ff
.	8d-`L	.
4r	8A-X`	.
.	8f`	.
4r	8d-`	.
.	8a-`J	.
=140	=140	=140
2.r	8f`L	.
.	8dd-`	.
.	8a-`	.
.	8ff`	.
.	8ee-`	.
.	8dd-`J	.
!!LO:LB:g=z
=141	=141	=141
2.r	8cc`L	.
.	8dd-	.
.	8a-X`	.
.	8g-`	.
.	8f`	.
.	8e-`J	.
=142	=142	=142
2.r	(8d-L	>
.	8c	.
.	8d-	.
.	8f	.
.	8e-	.
.	8d-J	.
=143	=143	=143
8r	(2c)	>
8F 8A-L	.	.
8F 8A-	.	.
8F 8A-	.	.
8F 8A-	4Bn 4dn	.
8F 8A-J	.	]]
=144	=144	=144
8r	[2.c) [2.e-	p
(8FF#L	.	.
8GG	.	.
8FF#	.	.
8GG	.	.
8FF#J	.	.
=145	=145	=145
2.GG)	(8c] 8e-L]	.
.	8e- 8g)	.
.	(8e- 8g	.
.	8d 8f	.
.	8c 8e-	.
.	8Bn 8dJ)	.
=146	=146	=146
*^	*^	*
8rA	[2.C	[2.c	8r	.
(8EnL	.	.	(8GL	.
8F	.	.	8A-	.
8E	.	.	8G	.
8F	.	.	8A-	.
8EJ	.	.	8GJ	.
!!LO:LB:g=z
=147	=147	=147	=147	=147
8FL)	2.C_	2.c_	8A-L)	.
(8G	.	.	(8Bn	.
8A-	.	.	8c	.
8G	.	.	8B	.
8A-	.	.	8c	.
8GJ	.	.	8BJ	.
=148	=148	=148	=148	=148
8A-L)	2.C_	2.c_	8cL)	.
(8F#	.	.	(8An	.
8G	.	.	8B-X	.
8F#	.	.	8A	.
8G	.	.	8B-	.
8F#J	.	.	8AJ	.
=149	=149	=149	=149	=149
8GL)	2.C_	2.c_	8B-L)	.
(8En	.	.	(8G	.
8Fn	.	.	8A-X	.
8E	.	.	8G	.
8F	.	.	8A-	.
8EJ	.	.	8GJ	.
=150	=150	=150	=150	=150
8F)	4C]	8c]	8A-)	.
8A-L	.	8f`>L>	8ryy	.
!	!	!LO:TX:i:c:t=rit.	!	!
8G	4rGG	8e-`>	2ryy	.
8F	.	8d`>	.	.
8E-	4rGG	8c`>	.	.
8DJ	.	8Bn`>J	.	.
*v	*v	*	*	*
*	*v	*v	*
=151	=151	=151
!	!	!LO:DY:rj
2.CC' 2.C'	(>2.Bn 2.D< 2.F<	pp
=152	=152	=152
4CC 4C	4c) 4E-< 4G<	.
4r	4r	.
==:|.	==:|.	==:|!
*-	*-	*-
!!!RDF**kern: > = above
!!!RDF**kern: < = below
!!!RDF**dynam: > = dim.
!!!PPR: Universal Edition 1-4
!!!PTL: Haydn Piano Sonatas, Vol. 3, No. 26
!!!YOY: 1901
!!!ONB: Stich und Druck von Jos. Eberle & Co. Wien VII. Seidengasse 3-9
!!!ONM-ue: III:26.3
!!!YEC: 2021 Craig Stuart Sapp
!!!YEM: Licence: (CC BY-NC-SA 4.0) https://creativecommons.org/licenses/by-nc-sa/4.0
!!!YER: 2021
!!!ENC: Craig Stuart Sapp
!!!END: 2009/08/27
!!!EED: Craig Stuart Sapp
!!!EEV: 2021/02/01
!!!YEC: 2021 Craig Stuart Sapp
!!!URL: https://github.com/craigsapp/haydn-keyboard-sonatas
!!!URL-vhv: https://verovio.humdrum.org?file=haydn/sonatas/sonata33-3.krn
!!!URL-pdf: https://github.com/craigsapp/haydn-keyboard-sonatas/raw/master/reference-edition/sonata33-3.pdf
!!!title: @{OTL}, mvmt. @{OMV} (@{SCT}), UE @ONM-ue
